Crule-dark/status/22/camera-on.svg

<svg xmlns="http://www.w3.org/2000/svg" viewBox="0 0 22 22"><path d="M11 3.089844A7.910653 7.910654 0 0 0 3.089844 11 7.910653 7.910654 0 0 0 11 18.910156 7.910653 7.910654 0 0 0 18.910156 11 7.910653 7.910654 0 0 0 11 3.089844zM11 3.963C11.414 3.963 11.75 4.299 11.75 4.713 11.75 5.126 11.414 5.463 11 5.463 10.586 5.463 10.25 5.126 10.25 4.713 10.25 4.299 10.586 3.963 11 3.963zM10.998 6C13.755 6 16 8.244 16 11 16 13.757 13.755 16 10.998 16 8.241 16 6 13.757 6 11 6 8.244 8.241 6 10.998 6zM11 7.5C9.07 7.5 7.5 9.07 7.5 11 7.5 12.93 9.07 14.5 11 14.5 12.93 14.5 14.5 12.93 14.5 11 14.5 9.07 12.93 7.5 11 7.5z" transform="translate(0-.002)" fill-rule="evenodd" stroke="#ffffff" stroke-linecap="round" stroke-width=".179" fill="#ffffff"/></svg>

<svg version="1.1" viewBox="0 0 22 22" xmlns="http://www.w3.org/2000/svg">
 <defs>
  <style id="current-color-scheme" type="text/css">
   .ColorScheme-Text { color:#ffffff; } .ColorScheme-Highlight { color:#4285f4; }
  </style>
 </defs>
 <path d="m11 3.0895a7.9105 7.9105 0 0 0-7.9105 7.9105 7.9105 7.9105 0 0 0 7.9105 7.9105 7.9105 7.9105 0 0 0 7.9105-7.9105 7.9105 7.9105 0 0 0-7.9105-7.9105zm0 0.87305a0.75005 0.75005 0 1 1 0 1.5001 0.75005 0.75005 0 0 1 0-1.5001zm-2e-3 2.0371a5.0083 5.0083 0 0 1 5.0023 5.0003c0 2.7572-2.2451 5.0003-5.0023 5.0003a5.0043 5.0043 0 0 1-4.9983-5.0003c0-2.7562 2.2411-5.0003 4.9983-5.0003zm2e-3 1.5001c-1.9301 0-3.5002 1.5701-3.5002 3.5002 0 1.9301 1.5701 3.5002 3.5002 3.5002 1.9301 0 3.5002-1.5701 3.5002-3.5002 0-1.9301-1.5701-3.5002-3.5002-3.5002z" class="ColorScheme-Text" fill="currentColor"/>
</svg>
